X: 1
T: Reel des Oignons
O: Qu\'ebec
M: C|
Z: Transcribed to abc by Mary Lou Knack
R: reel
K: G
z2 \
| "G"gage d2"E7"Bd | "Am"c2{dc}A2 A4 \
|1,3 "D"feee eddd | dccc "(G)"c2B2 \
:|2,4 "D"D2fe dcBA | "G"G2g2 g2 :|
|: Bc \
| "G"d2g2 g2fg | "Am"a6 (3ABc \
| "D"d2a2 a2ga | "G"b6 (3Bc^c \
| "G"d2g2 g2fg | "Am"a6 (3ABc \
| "D"d2a2 a2ba | "G"g6 :|
